X: 40045
T: Through The Trade
R: reel
M: 4/4
K: Cmajor
c2GE F2DF|E3G FDDG|c2GE FDDF|E/F/GFD CDEG|
c2GE FDDF|E3G FDDF|E3G FDDF|E/F/GFD CDEG|
c3e d3e|cdec dcAB|c3e d3c|BGFD CDEG|
c3e d3e|cdec d2cd|ecdB cAGE|FGAc BcdB|

